X:11024
T:Kemp's Jig
R:March
C:Trad.
N:Will Kempe danced from London to Norwich in 1600 to win a bet.
O:England
Z:Paul Hardy's Session Tunebook 2022 (see www.paulhardy.net). Creative Commons cc by-nc-sa licenced.
M:2/2
L:1/8
Q:1/2=85
K:G
"G"B2>c2 B2A2|"Em"G2>A2 G2F2|"C"E2D2 "D7"E2F2|"G"G4 .G4|"G"BABc B2A2|"Em"GFGA G2F2|"C"E2D2 "D7"EDEF|"G"G4 .G4||
"Bm"B2d2 B2d2|B2dc B4|"Am"A2c2 A2c2|A2G=F E2^F2|"G"G2D2 B,CD2|"Em"G2DC B,CD2|"C"E2D2 "D7"E2F2|"G"G4 .G4||
"Bm"B2d2 Bcd2|B2dc BAG2|"Am"A2c2 ABc2|A2G=F E2^F2|"G"G2D2 B,CD2|"Em"GDED B,CD2|"C"E2D2 "D7"EDEF|"G"G4 .G4|]

